X:1
T:Foggia, 76.76.77.76
T:Foggia, 76.76.77.76
T:Theodore Edson Perkins, 1893
T:Public Domain Courtesy of the Cyber Hymnal™
C:Theodore Edson Perkins, 1893
Z:Public Domain
Z:Courtesy of the Cyber Hymnal™
%%score ( 1 2 ) 3
L:1/8
Q:1/4=84
M:4/8
K:F
V:1 treble 
V:2 treble 
V:3 bass 
V:1
 [FA][Fc][Fc][Fc] | [Fd][Fc] [Fc]2 | [CF]>[CF][CF][FA] | [FA]2 [EG]2 | [FA][Fc][Fc][Fc] | %5
 [Fd][Fc] [Fc]2 | [CF]>[CF][FA]F | [EG]2 F2 | [EG][GB][GB][EG] | [FA][Fd] [Fc]2 | %10
 [EG][Ec][Ge][Ec] | [Fd][F=B] [Ec]2 | [FA][Fc][Fc][Fc] | [Fd][Fc] [FA]2 | [CF]>[CF][FA]F | %15
 [EG]2 F2 |] %16
V:2
 x4 | x4 | x4 | x4 | x4 | x4 | x3 F | x2 F2 | x4 | x4 | x4 | x4 | x4 | x4 | x3 F | x2 F2 |] %16
V:3
 [F,C][F,A,][F,A,][F,A,] | [B,,B,][F,A,] [F,A,]2 | [F,A,]>[F,A,][F,A,][D,=B,] | [C,C]2 [C,C]2 | %4
 [F,C][F,A,][F,A,][F,A,] | [B,,B,][F,A,] [F,A,]2 | [F,A,]>[F,A,][F,C][A,,C] | [C,B,]2 [F,A,]2 | %8
 [C,C][C,C][C,C][C,C] | [F,C][F,B,] [F,A,]2 | [G,C][G,C][C,C][C,G,] | [G,=B,][G,D] [C,C]2 | %12
 [F,C][F,A,][F,A,][F,A,] | [B,,B,][F,A,] [F,C]2 | [F,A,]>[F,A,][F,C][A,,C] | [C,B,]2 [F,A,]2 |] %16

